brandFactory_export/2.Regular/Foro_2Regular.svg

<?xml version="1.0" encoding="UTF-8"?>
<svg width="24px" height="24px" viewBox="0 0 24 24" version="1.1" xmlns="http://www.w3.org/2000/svg" xmlns:xlink="http://www.w3.org/1999/xlink">
    <title>2.Regular/Foro_2Regular</title>
    <g id="Symbols" stroke="none" stroke-width="1" fill="none" fill-rule="evenodd">
        <g id="2.Regular/Foro_2Regular" fill="#5CB615" fill-rule="nonzero">
            <path d="M10.8067227,16.712605 C12.4134454,16.712605 13.6537815,17.1428571 14.497479,17.9932773 C15.3411765,18.8436975 15.7680672,20.087395 15.7680672,21.7008403 L15.7680672,22.9478992 C15.7680672,23.3210084 15.4689076,23.6201681 15.0957983,23.6201681 L0.672268907,23.6201681 C0.302521008,23.6201681 -4.01119138e-10,23.3176471 -4.01119138e-10,22.9478992 L-4.01119138e-10,21.7008403 C-4.01119138e-10,20.087395 0.426890756,18.8403361 1.27058823,17.9932773 C2.11428571,17.1462185 3.35798319,16.712605 4.96134454,16.712605 L10.8067227,16.712605 Z M10.810084,18.0571429 L4.96134454,18.0571429 C3.72773109,18.0571429 2.80672269,18.3529412 2.22521008,18.9411765 C1.64369748,19.5294118 1.34453781,20.4571429 1.34453781,21.7008403 L1.34453781,22.2756303 L14.4235294,22.2756303 L14.4235294,21.7008403 C14.4235294,20.4571429 14.1277311,19.5260504 13.5462185,18.9411765 C12.9647059,18.3563025 12.0436975,18.0571429 10.810084,18.0571429 Z M7.88571429,6.75630252 C9.34453781,6.75630252 10.4806723,7.17983193 11.2672269,8.01008403 C12.0067227,8.79327731 12.3831933,9.88571429 12.3831933,11.2537815 C12.3831933,12.6218487 12.0067227,13.7142857 11.2672269,14.497479 C10.4806723,15.3344538 9.34117647,15.7546218 7.88571429,15.7546218 C6.42689076,15.7546218 5.2907563,15.3344538 4.50420168,14.5008403 C3.76134454,13.7176471 3.38823529,12.6252101 3.38823529,11.2571429 C3.38823529,9.88907563 3.76470588,8.79663866 4.50420168,8.01344538 C5.2907563,7.17983193 6.42689076,6.75630252 7.88571429,6.75630252 Z M7.88571429,8.10084034 C5.79159664,8.10084034 4.73277311,9.16302521 4.73277311,11.2537815 C4.73277311,13.3445378 5.79495798,14.4067227 7.88571429,14.4067227 C9.97647059,14.4067227 11.0386555,13.3445378 11.0386555,11.2537815 C11.0386555,9.16302521 9.97647059,8.10084034 7.88571429,8.10084034 Z M21.6941176,-1.50990331e-12 C22.7630252,-1.50990331e-12 23.6302521,0.867226891 23.6302521,1.93613445 L23.6302521,6.61848739 C23.6302521,7.68739496 22.7630252,8.55462185 21.6941176,8.55462185 L17.7478992,8.55462185 C17.3714286,9.14957983 16.5747899,10.4033613 16.4168067,10.6420168 C16.0672269,11.1764706 15.5697479,11.4991597 15.1193277,11.4991597 C15.0756303,11.4991597 15.0285714,11.4957983 14.9848739,11.4890756 C14.487395,11.4151261 14.0840336,10.9344538 14.0840336,10.4235294 L14.0840336,8.5512605 L13.9529412,8.5512605 C12.907563,8.5512605 12.1176471,7.71764706 12.1176471,6.61512605 L12.1176471,1.93613445 C12.1176471,0.867226891 12.9848739,-1.50990331e-12 14.0537815,-1.50990331e-12 L21.6941176,-1.50990331e-12 Z M21.6941176,1.34453782 L14.0537815,1.34453782 C13.7277311,1.34453782 13.4621849,1.61008403 13.4621849,1.93613445 L13.4621849,6.61848739 C13.4621849,6.91428571 13.6134454,7.21008403 13.9529412,7.21008403 L14.7563025,7.21008403 C15.1260504,7.21008403 15.4285714,7.51260504 15.4285714,7.88235294 L15.4285714,9.69411765 C15.8218487,9.08235294 16.8,7.5394958 16.810084,7.52268908 C16.9344538,7.32773109 17.1462185,7.21008403 17.3781513,7.21008403 L21.6941176,7.21008403 C22.0201681,7.21008403 22.2857143,6.94453782 22.2857143,6.61848739 L22.2857143,1.93613445 C22.2857143,1.61008403 22.0201681,1.34453782 21.6941176,1.34453782 Z M15.2504202,3.27731092 C15.7983193,3.27731092 16.2420168,3.7210084 16.2420168,4.26890756 C16.2420168,4.81680672 15.7983193,5.2605042 15.2504202,5.2605042 C14.702521,5.2605042 14.2588235,4.81680672 14.2588235,4.26890756 C14.2588235,3.7210084 14.702521,3.27731092 15.2504202,3.27731092 Z M17.8722689,3.27731092 C18.4201681,3.27731092 18.8638655,3.7210084 18.8638655,4.26890756 C18.8638655,4.81680672 18.4201681,5.2605042 17.8722689,5.2605042 C17.3243697,5.2605042 16.8806723,4.81680672 16.8806723,4.26890756 C16.8806723,3.7210084 17.3243697,3.27731092 17.8722689,3.27731092 Z M20.4941176,3.27731092 C21.0420168,3.27731092 21.4857143,3.7210084 21.4857143,4.26890756 C21.4857143,4.81680672 21.0420168,5.2605042 20.4941176,5.2605042 C19.9462185,5.2605042 19.502521,4.81680672 19.502521,4.26890756 C19.502521,3.7210084 19.9462185,3.27731092 20.4941176,3.27731092 Z" id="Foro_2Regular"></path>
        </g>
    </g>
</svg>

<svg width="24" height="24" viewBox="0 0 24 24" xmlns="http://www.w3.org/2000/svg"><path d="M10.807 16.713c1.606 0 2.847.43 3.69 1.28.844.85 1.271 2.094 1.271 3.708v1.247a.67.67 0 01-.672.672H.672A.674.674 0 010 22.948V21.7c0-1.614.427-2.86 1.27-3.708.844-.847 2.088-1.28 3.691-1.28h5.846zm.003 1.344H4.961c-1.233 0-2.154.296-2.736.884-.581.588-.88 1.516-.88 2.76v.575h13.079V21.7c0-1.244-.296-2.175-.878-2.76-.581-.585-1.502-.884-2.736-.884zm-2.924-11.3c1.459 0 2.595.423 3.381 1.253.74.783 1.116 1.876 1.116 3.244 0 1.368-.376 2.46-1.116 3.243-.786.837-1.926 1.258-3.381 1.258-1.46 0-2.595-.42-3.382-1.254-.743-.783-1.116-1.876-1.116-3.244 0-1.368.377-2.46 1.116-3.244.787-.833 1.923-1.257 3.382-1.257zm0 1.344c-2.094 0-3.153 1.062-3.153 3.153 0 2.09 1.062 3.153 3.153 3.153 2.09 0 3.153-1.062 3.153-3.153S9.976 8.1 7.886 8.1zM21.694 0c1.069 0 1.936.867 1.936 1.936v4.682a1.937 1.937 0 01-1.936 1.937h-3.946a273.42 273.42 0 01-1.331 2.087c-.35.534-.847.857-1.298.857a.905.905 0 01-.134-.01c-.498-.074-.901-.555-.901-1.065V8.55h-.131c-1.045 0-1.835-.833-1.835-1.936V1.936C12.118.867 12.985 0 14.054 0h7.64zm0 1.345h-7.64a.592.592 0 00-.592.591v4.682c0 .296.151.592.49.592h.804c.37 0 .673.303.673.672v1.812c.393-.612 1.371-2.155 1.381-2.171a.671.671 0 01.568-.313h4.316a.592.592 0 00.592-.592V1.936a.592.592 0 00-.592-.591zM15.25 3.277a.991.991 0 11.001 1.983.991.991 0 010-1.983zm2.622 0a.991.991 0 110 1.983.991.991 0 010-1.983zm2.622 0a.991.991 0 110 1.983.991.991 0 010-1.983z" fill="#5CB615" fill-rule="nonzero"/></svg>
